!! 00000] TT[WS
!!!OTL: Kaiha diao
!!!ARE: Asia, China, Shanxi Wuxiang
!! Ethnic Group: Han
!! WI, 299 (2)
!!!SCT: J0362
!!!YEM: Copyright 1995, estate of Helmut Schaffrath.
**kern
*ICvox
*Ivox
*M3/4
*k[b-]
*F:
{4a
4e
4d
=1
8c
8d
2c
=2
[2c]
8c]
8ff
=3
4a
4cc
8cc
16cc
16g
=4
4f
2a}
=5
{4g
4e
4d
=6
4c
8d
8c
4A
=7
4g
8a
8g
4f
=8
2g
4a
=9
4d
4f
8c
8d
=10
2.c}
==
!!!AGN: Xiaodiao, Kaihuadiao. Xinminge, Xuanchuan
!! Neue Text. Politische Liede
!!!ONB: ESAC (Essen Associative Code) Database: CHINA
!!!AMT: simple triple
!!!AIN: vox
!!!EED: Helmut Schaffrath
!!!EEV: 1.0
*-
